X:164
T:Cut and Dry
R:Strathspey
B:The Athole Collection
M:C|
L:1/8
K:A
c>Bae c<Ae<=g|B>Gd>B =G/G/G B2|c>Bae c<Ae<=g|d>B=g>B A/A/A e2:|
c>BA>g a>ba>=g|e>=gd>B =G/G/G B2|c>BA>g a>ba>=g|e>d=g>B A/A/A e2|
c>Bag a>ba>e|=g=Gd>B|c<A e>c d>Ba>=g|e>d=g>B A/A/A e2||
